X: 10
T: The Pigeon On The Gate
R: reel
M: 4/4
L: 1/8
K: Gmaj
|:Bc|dGGG dGeG|dGeG dBAB|cFFF AFFF|B/c/ded cABc|
dGGG dGeG|dGeG dcAG|FGAB cded|fdcA BG:|
|:Bc|dggg fage|dggg b2ag|fdde fde^c|defg a2ge|
dggg fage|dggg b2ag|fdde fde/f/g|fdcA BG:|


Tune 517	Setting 13451

